X: 1
T: Sporting Paddy
M: 4/4
L: 1/8
K: Gmaj
|: EAAB GABG | EAAB G2ED | EAA2 GABd | edge dBAG |
EAAB GABG | EAAB G2ED | EAA2 GABd | edge d2 ||
ef | ge e/e/e gede | ge e/e/e a2ba | ge e/e/e gedg | efge d2ef |
ge e/e/e gede | ge e/e/e a2ga | bgaf gfeg | efge dBAG :| 
 
